Sources/FrostedUI/Resources/Icons.xcassets/export24.imageset/export-24.svg

<svg width="24" height="24" viewBox="0 0 24 24" fill="none" xmlns="http://www.w3.org/2000/svg" data-fui-icon="true">
  <path
    d="M10.5 4C10.9142 4 11.25 4.33579 11.25 4.75C11.25 5.16421 10.9142 5.5 10.5 5.5H5.32031C4.31515 5.5 3.5 6.31515 3.5 7.32031V18.6797C3.5 19.6848 4.31515 20.5 5.32031 20.5H16.6797C17.6848 20.5 18.5 19.6848 18.5 18.6797V13.5C18.5 13.0858 18.8358 12.75 19.25 12.75C19.6642 12.75 20 13.0858 20 13.5V18.6797C20 20.5133 18.5133 22 16.6797 22H5.32031C3.48673 22 2 20.5133 2 18.6797V7.32031C2 5.48673 3.48673 4 5.32031 4H10.5ZM21.25 2C21.6642 2.00004 22 2.33581 22 2.75V9C22 9.41419 21.6642 9.74996 21.25 9.75C20.8358 9.75 20.5 9.41421 20.5 9V4.56055L12.2803 12.7803C11.9874 13.0732 11.5126 13.0732 11.2197 12.7803C10.9268 12.4874 10.9268 12.0126 11.2197 11.7197L19.4395 3.5H15C14.5858 3.5 14.25 3.16421 14.25 2.75C14.25 2.33579 14.5858 2 15 2H21.25Z"
    fill="currentColor"
  />
</svg>

<svg xmlns="http://www.w3.org/2000/svg" width="24" height="24" fill="none" data-fui-icon="true" viewBox="0 0 24 24"><path fill="currentColor" d="M10.5 4a.75.75 0 0 1 0 1.5H5.32A1.82 1.82 0 0 0 3.5 7.32v11.36a1.82 1.82 0 0 0 1.82 1.82h11.36a1.82 1.82 0 0 0 1.82-1.82V13.5a.75.75 0 0 1 1.5 0v5.18A3.32 3.32 0 0 1 16.68 22H5.32A3.32 3.32 0 0 1 2 18.68V7.32A3.32 3.32 0 0 1 5.32 4zm10.75-2a.75.75 0 0 1 .75.75V9a.75.75 0 0 1-1.5 0V4.56l-8.22 8.22a.75.75 0 1 1-1.06-1.06l8.22-8.22H15A.75.75 0 0 1 15 2z"/></svg>
